.icons/oomox-ad/16x16/apps/python.svg

<svg xmlns="http://www.w3.org/2000/svg" width="16" height="16" version="1.1">
 <path fill="#ffc851" d="m12 4v2c0 1.108-0.892 2-2 2h-4s-2 0-2 2v3.5c0 1.385 1.5613 2.5 3.5 2.5h1c1.9387 0 3.5-1.1147 3.5-2.5v-1.5h1.5c1.385 0 2.5-1.561 2.5-3.5v-1c0-1.9387-1.115-3.5-2.5-3.5h-1.5z"/>
 <path fill="#fff" d="m10.5 13a0.5 0.5 0 0 1 0.5 0.5 0.5 0.5 0 0 1 -0.5 0.5 0.5 0.5 0 0 1 -0.5 -0.5 0.5 0.5 0 0 1 0.5 -0.5z"/>
 <path fill="#4795d1" d="m7.5-2e-8c-1.9387 0-3.5 1.115-3.5 2.5v1.5h-1.5c-1.385 0-2.5 1.5613-2.5 3.5v1c-2e-8 1.939 1.115 3.5 2.5 3.5h1.5v-2c0-1.108 0.892-2 2-2h4s2 0 2-2v-3.5c0-1.385-1.561-2.5-3.5-2.5h-1z"/>
 <path fill="#fff" d="m5.5 2a0.5 0.5 0 0 1 0.5 0.5 0.5 0.5 0 0 1 -0.5 0.5 0.5 0.5 0 0 1 -0.5 -0.5 0.5 0.5 0 0 1 0.5 -0.5z"/>
</svg>

<svg xmlns="http://www.w3.org/2000/svg" width="16" height="16" version="1.1">
 <path style="fill:#ffa923" d="m 12,4 v 2 c 0,1.108 -0.892,2 -2,2 H 6 C 6,8 4,8 4,10 v 3.5 C 4,14.8848 5.5608,16 7.5,16 h 1 C 10.4392,16 12,14.8848 12,13.5 V 13 H 8 v -1 h 5.5 C 14.8848,12 16,10.4392 16,8.5 v -1 C 16,5.5608 14.8848,4 13.5,4 Z"/>
 <path style="fill:#ffffff" d="M 10.5,14 A 0.5,0.5 0 0 1 11,14.5 0.5,0.5 0 0 1 10.5,15 0.5,0.5 0 0 1 10,14.5 0.5,0.5 0 0 1 10.5,14 Z"/>
 <path style="fill:#3084e0" d="M 7.5,0 C 5.5608,0 4,1.115 4,2.5 V 3 H 8 V 4 H 2.5 C 1.115,4 0,5.5608 0,7.5 v 1 C 0,10.4392 1.115,12 2.5,12 H 4 V 10 C 4,8.892 4.892,8 6,8 h 4 c 0,0 2,0 2,-2 V 2.5 C 12,1.115 10.4392,0 8.5,0 Z"/>
 <path style="fill:#ffffff" d="M 5.5,1 A 0.5,0.5 0 0 1 6,1.5 0.5,0.5 0 0 1 5.5,2 0.5,0.5 0 0 1 5,1.5 0.5,0.5 0 0 1 5.5,1 Z"/>
</svg>
